static/images/spot/seer-config-ship.svg

<svg width="450" height="576" viewBox="0 0 450 576" fill="none" xmlns="http://www.w3.org/2000/svg">
<g clip-path="url(#clip0_2624_17273)">
<path d="M109.375 105.017L127.747 171.308H322.131L340.619 105.017L224.989 5.97656L109.375 105.017Z" fill="#DA00C9"/>
<g style="mix-blend-mode:multiply" opacity="0.75">
<path d="M109.368 105.017L127.74 171.308H322.124L340.611 105.017H109.368Z" fill="#7D47D2"/>
</g>
<path d="M282.829 133.805C282.829 134.324 282.964 138.54 282.862 139.049C280.688 149.925 255.505 154.802 224.99 154.802C199.212 154.802 173.701 150.306 167.348 140.98C166.985 138.57 166.836 133.464 167.364 132.232C171.933 121.573 193.046 112.809 224.99 112.809C256.934 112.809 282.829 122.209 282.829 133.805Z" fill="black"/>
<path d="M224.99 160.15C256.934 160.15 282.829 150.749 282.829 139.153C282.829 127.557 256.934 118.157 224.99 118.157C193.046 118.157 167.15 127.557 167.15 139.153C167.15 150.749 193.046 160.15 224.99 160.15Z" fill="#7553FF"/>
<path d="M224.865 157.179C252.771 157.179 275.393 149.565 275.393 140.172C275.393 130.779 252.771 123.164 224.865 123.164C196.959 123.164 174.337 130.779 174.337 140.172C174.337 149.565 196.959 157.179 224.865 157.179Z" fill="#FDB81B"/>
<path d="M224.997 157.179C252.903 157.179 275.525 149.565 275.525 140.172C275.525 130.779 252.903 123.164 224.997 123.164C197.091 123.164 174.469 130.779 174.469 140.172C174.469 149.565 197.091 157.179 224.997 157.179Z" stroke="black" stroke-miterlimit="10"/>
<path d="M274.615 136.93C270.134 144.779 249.623 150.709 224.997 150.709C200.255 150.709 179.667 144.723 175.316 136.819" stroke="black" stroke-miterlimit="10"/>
<path d="M167.141 139.49C167.292 124.657 196.993 119.661 208.517 118.321C224.946 116.453 241.75 117.369 257.833 121.249C266.8 123.673 282.588 128.395 282.895 139.593C282.758 133.843 277.782 129.901 273.093 127.442C250.674 116.645 216.41 116.376 192.414 121.959C183.71 124.177 167.56 128.661 167.141 139.49Z" fill="black"/>
<path d="M134.516 123.663C140.396 123.663 145.163 121.421 145.163 118.654C145.163 115.887 140.396 113.645 134.516 113.645C128.636 113.645 123.869 115.887 123.869 118.654C123.869 121.421 128.636 123.663 134.516 123.663Z" fill="black"/>
<path d="M134.516 120.96C138.417 120.96 141.579 119.472 141.579 117.637C141.579 115.801 138.417 114.313 134.516 114.313C130.615 114.313 127.453 115.801 127.453 117.637C127.453 119.472 130.615 120.96 134.516 120.96Z" fill="#FDB81B"/>
<path d="M140.128 143.541C146.008 143.541 150.775 141.298 150.775 138.531C150.775 135.765 146.008 133.522 140.128 133.522C134.248 133.522 129.481 135.765 129.481 138.531C129.481 141.298 134.248 143.541 140.128 143.541Z" fill="black"/>
<path d="M140.128 140.837C144.029 140.837 147.191 139.349 147.191 137.514C147.191 135.679 144.029 134.191 140.128 134.191C136.228 134.191 133.065 135.679 133.065 137.514C133.065 139.349 136.228 140.837 140.128 140.837Z" fill="#FDB81B"/>
<path d="M144.948 163.051C150.828 163.051 155.595 160.808 155.595 158.042C155.595 155.275 150.828 153.032 144.948 153.032C139.068 153.032 134.301 155.275 134.301 158.042C134.301 160.808 139.068 163.051 144.948 163.051Z" fill="black"/>
<path d="M144.948 160.347C148.849 160.347 152.011 158.86 152.011 157.024C152.011 155.189 148.849 153.701 144.948 153.701C141.047 153.701 137.885 155.189 137.885 157.024C137.885 158.86 141.047 160.347 144.948 160.347Z" fill="#FDB81B"/>
<path d="M313.339 123.663C319.219 123.663 323.986 121.421 323.986 118.654C323.986 115.887 319.219 113.645 313.339 113.645C307.459 113.645 302.692 115.887 302.692 118.654C302.692 121.421 307.459 123.663 313.339 123.663Z" fill="black"/>
<path d="M313.339 120.96C317.24 120.96 320.402 119.472 320.402 117.637C320.402 115.801 317.24 114.313 313.339 114.313C309.438 114.313 306.276 115.801 306.276 117.637C306.276 119.472 309.438 120.96 313.339 120.96Z" fill="#FDB81B"/>
<path d="M307.726 143.541C313.607 143.541 318.373 141.298 318.373 138.531C318.373 135.765 313.607 133.522 307.726 133.522C301.846 133.522 297.08 135.765 297.08 138.531C297.08 141.298 301.846 143.541 307.726 143.541Z" fill="black"/>
<path d="M307.726 140.837C311.627 140.837 314.789 139.349 314.789 137.514C314.789 135.679 311.627 134.191 307.726 134.191C303.826 134.191 300.664 135.679 300.664 137.514C300.664 139.349 303.826 140.837 307.726 140.837Z" fill="#FDB81B"/>
<path d="M302.906 163.051C308.787 163.051 313.553 160.808 313.553 158.042C313.553 155.275 308.787 153.032 302.906 153.032C297.026 153.032 292.26 155.275 292.26 158.042C292.26 160.808 297.026 163.051 302.906 163.051Z" fill="black"/>
<path d="M302.906 160.347C306.807 160.347 309.969 158.86 309.969 157.024C309.969 155.189 306.807 153.701 302.906 153.701C299.006 153.701 295.844 155.189 295.844 157.024C295.844 158.86 299.006 160.347 302.906 160.347Z" fill="#FDB81B"/>
<path d="M200.989 51.6782C200.989 51.6782 208.301 55.7224 225.204 55.7224C241.315 55.7224 249.651 51.4141 249.651 51.4141C249.651 51.4141 238.146 30.1699 225.303 30.1699C213.98 30.1699 200.989 51.6782 200.989 51.6782Z" fill="black"/>
<path d="M203.679 52.8998C203.679 52.8998 208.301 56.0691 225.204 56.0691C241.315 56.0691 247.389 52.8998 247.389 52.8998C247.389 52.8998 237.353 32.2993 225.204 32.2993C214.508 32.2993 203.679 52.8998 203.679 52.8998Z" fill="#FDB81B"/>
<path d="M217.224 55.8008C217.224 55.8008 219.016 56.0855 225.604 56.0855C231.882 56.0855 234.245 55.7 234.245 55.7C234.245 55.7 230.338 41.2129 225.604 41.2129C221.435 41.2129 217.224 55.8008 217.224 55.8008Z" fill="#662296"/>
<path d="M226.36 44.498C226.36 44.498 228.01 46.875 228.142 49.5821" stroke="white" stroke-width="2" stroke-linecap="round" stroke-linejoin="round"/>
<path d="M198.765 50.8057C210.226 57.8338 238.24 58.4141 250.883 51.0636" stroke="black" stroke-miterlimit="10" stroke-linecap="square"/>
<path d="M109.414 105.026C186.194 103.684 263.829 103.668 340.609 105.011C263.829 106.363 186.194 106.358 109.414 105.026Z" fill="black"/>
<path d="M177.665 135.104H272.231L449.992 545.528H-0.197998L177.665 135.104Z" fill="url(#paint0_linear_2624_17273)"/>
</g>
<defs>
<linearGradient id="paint0_linear_2624_17273" x1="224.897" y1="135.104" x2="224.897" y2="545.528" gradientUnits="userSpaceOnUse">
<stop offset="0.0856" stop-color="#FDB81B" stop-opacity="0.85"/>
<stop offset="0.1034" stop-color="#FDB81B" stop-opacity="0.81"/>
<stop offset="0.2057" stop-color="#FDB81B" stop-opacity="0.5976"/>
<stop offset="0.3091" stop-color="#FDB81B" stop-opacity="0.4146"/>
<stop offset="0.4117" stop-color="#FDB81B" stop-opacity="0.2652"/>
<stop offset="0.5131" stop-color="#FDB81B" stop-opacity="0.1491"/>
<stop offset="0.6131" stop-color="#FDB81B" stop-opacity="0.0663"/>
<stop offset="0.7112" stop-color="#FDB81B" stop-opacity="0.0167"/>
<stop offset="0.8048" stop-color="#FDB81B" stop-opacity="0"/>
</linearGradient>
<clipPath id="clip0_2624_17273">
<rect width="450" height="575.488" fill="white"/>
</clipPath>
</defs>
</svg>

<svg xmlns="http://www.w3.org/2000/svg" width="450" height="576" fill="none"><g clip-path="url(#a)"><path fill="#DA00C9" d="m109.4 105 18.3 66.3h194.4l18.5-66.3L225 6l-115.6 99Z"/><path fill="#7D47D2" d="m109.4 105 18.3 66.3h194.4l18.5-66.3H109.4Z" opacity=".8" style="mix-blend-mode:multiply"/><path fill="#000" d="M282.8 133.8c0 .5.2 4.7 0 5.2-2.1 11-27.3 15.8-57.8 15.8-25.8 0-51.3-4.5-57.7-13.8-.3-2.4-.5-7.5 0-8.8 4.6-10.6 25.7-19.4 57.7-19.4s57.8 9.4 57.8 21Z"/><path fill="#7553FF" d="M225 160.2c32 0 57.8-9.5 57.8-21 0-11.6-25.9-21-57.8-21-32 0-57.8 9.4-57.8 21 0 11.5 25.8 21 57.8 21Z"/><path fill="#FDB81B" d="M224.9 157.2c27.9 0 50.5-7.6 50.5-17s-22.6-17-50.5-17c-28 0-50.6 7.6-50.6 17s22.7 17 50.6 17Z"/><path stroke="#000" stroke-miterlimit="10" d="M225 157.2c27.9 0 50.5-7.6 50.5-17s-22.6-17-50.5-17c-28 0-50.5 7.6-50.5 17s22.6 17 50.5 17Z"/><path stroke="#000" stroke-miterlimit="10" d="M274.6 137c-4.5 7.8-25 13.7-49.6 13.7-24.7 0-45.3-6-49.7-13.9"/><path fill="#000" d="M167.1 139.5c.2-14.8 29.9-19.8 41.4-21.2 16.4-1.8 33.3-1 49.3 3 9 2.4 24.8 7.1 25 18.3 0-5.8-5-9.7-9.7-12.2-22.4-10.8-56.7-11-80.7-5.4-8.7 2.2-24.8 6.7-25.3 17.5ZM134.5 123.7c5.9 0 10.7-2.3 10.7-5 0-2.8-4.8-5-10.7-5-5.9 0-10.6 2.2-10.6 5 0 2.7 4.7 5 10.6 5Z"/><path fill="#FDB81B" d="M134.5 121c4 0 7-1.5 7-3.4 0-1.8-3-3.3-7-3.3-3.9 0-7 1.5-7 3.3 0 1.9 3.1 3.4 7 3.4Z"/><path fill="#000" d="M140.1 143.5c6 0 10.7-2.2 10.7-5 0-2.7-4.8-5-10.7-5-5.9 0-10.6 2.3-10.6 5 0 2.8 4.7 5 10.6 5Z"/><path fill="#FDB81B" d="M140.1 140.8c4 0 7-1.5 7-3.3 0-1.8-3-3.3-7-3.3-3.9 0-7 1.5-7 3.3 0 1.8 3.1 3.3 7 3.3Z"/><path fill="#000" d="M145 163c5.8 0 10.6-2.2 10.6-5 0-2.7-4.8-5-10.7-5-5.8 0-10.6 2.3-10.6 5 0 2.8 4.8 5 10.6 5Z"/><path fill="#FDB81B" d="M145 160.3c3.8 0 7-1.4 7-3.3 0-1.8-3.2-3.3-7-3.3-4 0-7.1 1.5-7.1 3.3 0 1.9 3.1 3.3 7 3.3Z"/><path fill="#000" d="M313.3 123.7c6 0 10.7-2.3 10.7-5 0-2.8-4.8-5-10.7-5-5.8 0-10.6 2.2-10.6 5 0 2.7 4.8 5 10.6 5Z"/><path fill="#FDB81B" d="M313.3 121c4 0 7.1-1.5 7.1-3.4 0-1.8-3.2-3.3-7-3.3-4 0-7.1 1.5-7.1 3.3 0 1.9 3.1 3.4 7 3.4Z"/><path fill="#000" d="M307.7 143.5c6 0 10.7-2.2 10.7-5 0-2.7-4.8-5-10.7-5-5.9 0-10.6 2.3-10.6 5 0 2.8 4.7 5 10.6 5Z"/><path fill="#FDB81B" d="M307.7 140.8c4 0 7-1.5 7-3.3 0-1.8-3-3.3-7-3.3-3.9 0-7 1.5-7 3.3 0 1.8 3.1 3.3 7 3.3Z"/><path fill="#000" d="M303 163c5.8 0 10.6-2.2 10.6-5 0-2.7-4.8-5-10.7-5-5.9 0-10.6 2.3-10.6 5 0 2.8 4.7 5 10.6 5Z"/><path fill="#FDB81B" d="M303 160.3c3.8 0 7-1.4 7-3.3 0-1.8-3.2-3.3-7-3.3-4 0-7.2 1.5-7.2 3.3 0 1.9 3.2 3.3 7.1 3.3Z"/><path fill="#000" d="M201 51.7s7.3 4 24.2 4c16.1 0 24.5-4.3 24.5-4.3S238 30.2 225.3 30.2C214 30.2 201 51.7 201 51.7Z"/><path fill="#FDB81B" d="M203.7 52.9s4.6 3.2 21.5 3.2c16.1 0 22.2-3.2 22.2-3.2s-10-20.6-22.2-20.6c-10.7 0-21.5 20.6-21.5 20.6Z"/><path fill="#662296" d="M217.2 55.8s1.8.3 8.4.3c6.3 0 8.6-.4 8.6-.4s-3.9-14.5-8.6-14.5c-4.2 0-8.4 14.6-8.4 14.6Z"/><path stroke="#fff" stroke-linecap="round" stroke-linejoin="round" stroke-width="2" d="M226.4 44.5s1.6 2.4 1.7 5"/><path stroke="#000" stroke-linecap="square" stroke-miterlimit="10" d="M198.8 50.8c11.4 7 39.4 7.6 52 .3"/><path fill="#000" d="M109.4 105c76.8-1.3 154.4-1.3 231.2 0-76.8 1.4-154.4 1.4-231.2 0Z"/><path fill="url(#b)" d="M177.7 135.1h94.5L450 545.5H-.2l177.9-410.4Z"/></g><defs><linearGradient id="b" x1="224.9" x2="224.9" y1="135.1" y2="545.5" gradientUnits="userSpaceOnUse"><stop offset=".1" stop-color="#FDB81B" stop-opacity=".8"/><stop offset=".1" stop-color="#FDB81B" stop-opacity=".8"/><stop offset=".2" stop-color="#FDB81B" stop-opacity=".6"/><stop offset=".3" stop-color="#FDB81B" stop-opacity=".4"/><stop offset=".4" stop-color="#FDB81B" stop-opacity=".3"/><stop offset=".5" stop-color="#FDB81B" stop-opacity=".1"/><stop offset=".6" stop-color="#FDB81B" stop-opacity=".1"/><stop offset=".7" stop-color="#FDB81B" stop-opacity="0"/><stop offset=".8" stop-color="#FDB81B" stop-opacity="0"/></linearGradient><clipPath id="a"><path fill="#fff" d="M0 0h450v575.5H0z"/></clipPath></defs></svg>
